X: 21128
T: Kas A Bar
R: reel
M: 4/4
K: Dmajor
AA/2F/2 A>A Bc AF|AA/2F/2A>A Bc A2:|
A A/2F/2 A>c BA FE|AA/2F/2 A>c BA F2:|
AA/2B/2c>B AFcc|AA/2c>B/2AF c2:|
A A/2B/2 A>c BAFE|AA/2B/2 A>c BA F2:|
FG/2A/2G>c BA GA|FG/2A/2G>c BA G2:|
FG/2A/2BccF E2|FG/2A/2 cB GA FE:|
FG/2A/2 BccF E2|FG/2A/2 cB GA F2:|

